icons/helicopter_fill.svg

<svg width="48" height="48" viewBox="0 0 48 48" fill="none" xmlns="http://www.w3.org/2000/svg">
<path fill-rule="evenodd" clip-rule="evenodd" d="M43.9264 20.6238L42.1198 16.1733L43.9544 10.298L42.0453 9.7019L40.3044 15.2773L29.9767 16.146C27.3821 16.1468 25.066 16.2778 23 16.5174V14C23 13.4477 22.5523 13 22 13C21.4477 13 21 13.4477 21 14V16.795C13.4985 18.0189 9.74411 20.8204 8.00004 23.8702C6.84667 25.8871 6.64764 27.8978 6.73112 29.3868C6.7729 30.1321 6.88572 30.7549 6.98958 31.1959C7.04161 31.4169 7.09171 31.5936 7.13016 31.7188C7.14941 31.7814 7.16577 31.8313 7.17806 31.8674C7.18421 31.8855 7.18934 31.9002 7.19331 31.9114L7.19837 31.9255L7.20022 31.9306L7.20096 31.9326C7.20127 31.9334 7.20155 31.9342 8 31.6389L7.20158 31.9343C7.26115 32.0953 7.36115 32.2382 7.49196 32.3493L8 31.7514C7.49255 32.3497 7.49608 32.3528 7.49963 32.3558L7.50723 32.3621L7.52218 32.374C7.53204 32.3818 7.54171 32.3891 7.55114 32.3959C7.56996 32.4096 7.58812 32.4219 7.60529 32.4328C7.63935 32.4544 7.67156 32.472 7.70033 32.4864C7.75673 32.5146 7.8108 32.5356 7.85846 32.5518C7.95196 32.5836 8.06047 32.6101 8.18921 32.6344C8.44754 32.6832 8.86948 32.7381 9.58385 32.7909C11.0172 32.8968 13.7179 33 18.8268 33C21.4795 33 23.6149 32.5716 25.3166 31.7374C27.0335 30.8958 28.2568 29.6662 29.1093 28.1602C30.6493 25.4395 30.958 21.8374 30.9957 18.0673L40.4088 17.2755L42.0733 21.3761L43.9264 20.6238ZM9 27L9.00004 26.6331C9.00003 26.6331 9.00005 26.633 9.00004 26.6331C9.00004 26.7373 9 26.8587 9 27ZM9.20416 26H19.5146C19.5765 25.8605 19.6492 25.6654 19.7285 25.4093C19.9534 24.6831 20.1723 23.6659 20.3649 22.5624C20.5939 21.2504 20.774 19.8866 20.8831 18.8411C14.0718 20.0349 11.0485 22.5682 9.7362 24.8631C9.51867 25.2434 9.34365 25.6242 9.20416 26Z" fill="black"/>
<path d="M5 10C4.44772 10 4 10.4477 4 11C4 11.5523 4.44772 12 5 12H38.0048C38.5571 12 39.0048 11.5523 39.0048 11C39.0048 10.4477 38.5571 10 38.0048 10H5Z" fill="black"/>
<path d="M4.37534 34.2192C4.8066 33.8742 5.4359 33.9441 5.78091 34.3753C6.00179 34.6514 6.56429 34.9759 7.539 35.2553C8.46309 35.5202 9.57632 35.6956 10.6741 35.8089C11.7656 35.9215 12.8098 35.9695 13.5835 35.9892C13.9695 35.999 14.2861 36.0017 14.5052 36.002C14.6147 36.0021 14.6997 36.0017 14.7566 36.0012L14.8205 36.0005L14.8358 36.0003L14.8392 36.0002L14.8484 36H30.5C31.0523 36 31.5 36.4478 31.5 37C31.5 37.5523 31.0523 38 30.5 38H14.865L14.847 38.0003L14.774 38.0011C14.7109 38.0016 14.6192 38.0021 14.5027 38.002C14.2698 38.0017 13.9368 37.9988 13.5327 37.9886C12.726 37.968 11.6273 37.9179 10.4688 37.7983C9.31661 37.6794 8.0727 37.4888 6.98786 37.1778C5.95364 36.8814 4.85543 36.4201 4.21917 35.6247C3.87416 35.1935 3.94408 34.5642 4.37534 34.2192Z" fill="black"/>
</svg>

<svg
  xmlns="http://www.w3.org/2000/svg"
  width="24"
  height="24"
  viewBox="0 0 24 24"
  fill="none"
  stroke="currentColor"
  stroke-width="2"
  stroke-linecap="round"
  stroke-linejoin="round"
>
  <path
    fill-rule="evenodd"
    d="m43.926 20.624-1.806-4.45 1.834-5.876-1.909-.596-1.74 5.575-10.328.869c-2.595 0-4.911.132-6.977.371V14a1 1 0 1 0-2 0v2.795C13.499 18.019 9.744 20.82 8 23.87c-1.153 2.017-1.352 4.028-1.269 5.517.042.745.155 1.368.259 1.809a8 8 0 0 0 .203.715l.005.014.002.006.001.002.799-.294-.798.295a1 1 0 0 0 .29.415L8 31.751c-.507.599-.504.602-.5.605l.007.006.015.012a1 1 0 0 0 .083.059 1 1 0 0 0 .253.119q.14.047.331.082c.259.05.68.104 1.395.157 1.433.106 4.134.209 9.243.209 2.653 0 4.788-.428 6.49-1.263a8.6 8.6 0 0 0 3.792-3.577c1.54-2.72 1.849-6.323 1.887-10.093l9.413-.791 1.664 4.1zM9 27v-.367zm.204-1h10.31q.095-.209.215-.59c.224-.727.443-1.744.636-2.848.229-1.312.409-2.675.518-3.72-6.811 1.193-9.834 3.726-11.147 6.021q-.324.571-.532 1.137"
    clip-rule="evenodd"
  />
  <path d="M5 10a1 1 0 1 0 0 2h33.005a1 1 0 1 0 0-2z" />
  <path d="M4.375 34.22a1 1 0 0 1 1.406.155c.22.276.783.6 1.758.88.924.265 2.037.44 3.135.554a39 39 0 0 0 4.083.192h.082l.01-.001H30.5a1 1 0 0 1 0 2H14.847l-.073.001-.271.001a40.498 40.498 0 0 1-4.034-.204c-1.152-.119-2.396-.31-3.481-.62-1.034-.297-2.133-.758-2.769-1.553a1 1 0 0 1 .156-1.406" />
</svg>
